client/filepreviewer/pdfjs/web/images/secondaryToolbarButton-handTool.svg

<svg width="16" height="16" viewBox="0 0 16 16" fill="none" xmlns="http://www.w3.org/2000/svg">
<path d="M7.75 2.125C7.75 1.78021 8.03021 1.5 8.375 1.5C8.71979 1.5 9 1.78021 9 2.125V3.125V8H10.5V3.125C10.5 2.78021 10.7802 2.5 11.125 2.5C11.4698 2.5 11.75 2.78021 11.75 3.125V4.625V8H13.25V4.625C13.25 4.28021 13.5302 4 13.875 4C14.2198 4 14.5 4.28021 14.5 4.625V12.0188L13.3802 13.6628C13.2954 13.7872 13.25 13.9344 13.25 14.085V16H14.75V14.3162L15.8698 12.6722C15.9546 12.5478 16 12.4006 16 12.25V4.625C16 3.45179 15.0482 2.5 13.875 2.5C13.6346 2.5 13.4035 2.53996 13.188 2.6136C12.959 1.68724 12.1219 1 11.125 1C10.8235 1 10.5366 1.06286 10.2768 1.17618C9.9281 0.478968 9.20726 0 8.375 0C7.54274 0 6.8219 0.478968 6.47323 1.17618C6.21337 1.06286 5.9265 1 5.625 1C4.45179 1 3.5 1.95179 3.5 3.125V7.25317C2.66504 6.54282 1.41035 6.58199 0.621672 7.37067C-0.208221 8.20056 -0.208221 9.54644 0.621672 10.3763L0.62188 10.3765L5.499 15.2498V16H6.999V14.939C6.999 14.74 6.9199 14.5491 6.77912 14.4085L1.68233 9.31567C1.43823 9.07156 1.43823 8.67544 1.68233 8.43133C1.92644 8.18722 2.32257 8.18722 2.56667 8.43133L3.71967 9.58433C3.93417 9.79883 4.25676 9.863 4.53701 9.74691C4.81727 9.63082 5 9.35735 5 9.054V3.125C5 2.78021 5.28022 2.5 5.625 2.5C5.96921 2.5 6.24906 2.77927 6.25 3.12326V8H7.75L7.75 3.125L7.75 3.12178V2.125Z" fill="black"/>
</svg>

<svg xmlns="http://www.w3.org/2000/svg" width="16" height="16" fill="none"><path d="M7.75 2.125c0-.345.28-.625.625-.625S9 1.78 9 2.125v1V8h1.5V3.125c0-.345.28-.625.625-.625s.625.28.625.625v1.5V8h1.5V4.625c0-.345.28-.625.625-.625s.625.28.625.625v7.394l-1.12 1.644a.75.75 0 0 0-.13.422V16h1.5v-1.684l1.12-1.644a.75.75 0 0 0 .13-.422V4.625c0-1.173-.952-2.125-2.125-2.125a2.12 2.12 0 0 0-.687.114C12.959 1.687 12.122 1 11.125 1c-.302 0-.588.063-.848.176C9.928.479 9.207 0 8.375 0S6.822.479 6.473 1.176C6.213 1.063 5.927 1 5.625 1 4.452 1 3.5 1.952 3.5 3.125v4.128c-.835-.71-2.09-.671-2.878.117-.83.83-.83 2.176 0 3.006h0l4.877 4.873V16h1.5v-1.061a.75.75 0 0 0-.22-.53L1.682 9.316c-.244-.244-.244-.64 0-.884s.64-.244.884 0L3.72 9.584A.75.75 0 0 0 5 9.054V3.125c0-.345.28-.625.625-.625s.624.279.625.623V8h1.5V3.125v-.003-.997z" fill="#000"/></svg>
